X:1
T:Larghetto
T:Larghetto (Sonata K 34) (accordion)
T:Domenico Scarlatti (1685-1757) Questions or mistakes: motrans@arcor.de
C:Domenico Scarlatti
Z:motrans@arcor.de
%%score { ( 1 3 ) | 2 }
L:1/8
M:3/4
K:F
V:1 treble nm="Piano" snm="Pno."
V:3 treble 
V:2 bass 
V:1
"^2" d2"^5" af dA | B2 ge cG | A2 eB AG | G2 FE F2 | d2 fd BA | ^G2 fd eA | B2 fd BA | %7
 ^G/A/G/A/ G/A/^F/G/ A2 | =B/c/d cB A2 | =B/c/d cB A2 | f/e/d c_B A^G |{^G} A6 :: %12
"^2" c2 fc"^1" A"^2"F |"^5->3" d2 fd BA | B2 ge cB | B2 PAG A2 | a2 d_e =Bc |({cd)} _e2 dc BA | %18
 PB2 AB G2 | g2 bg _ed | ^c2 bg ad | _e2 bg ed | ^c/d/c/d/ c/d/=B/c/ d2 | e/f/g fe d2 | %24
 e/f/g fe d2 | b/a/g f_e d^c |{^c} d6 :| %27
V:2
 F,2 A,2 z2 | G,2 C,2 E,2 | F,2 ^C,2 A,,2 | A,,2 A,,2 D,2 | D,2 D,2 F,2 | E,2 D,2 C,2 | %6
w: D F|G C E|F Cis A|A A D|D D F|E D C|
w: ||||||
 D,2 D,2 F,2 | E,2 =B,,2 C,2 | D,2 E,2 F,2 | z2 z2 z2 | D,2 E,2 E,2 | A,,2 G,2 A,,2 :: %12
w: D D F|E H C|D E F||D E E|A E A|
w: ||||||
 A,,2 F,2 A,,2 | B,,2 B,,2 B,,2 | G,2 C,2 E,2 | F,2 C,2 F,2 | ^F,4 z2 | ^F,2 D,2 F,2 | %18
w: A F A|B B B|G C E|F C F|Fis|Fis D Fis|
w: |* * (A)|||||
 G,2 D,2 G,2 | z2 G,2 B,,2 | A,,2 G,2 F,2 | G,2 G,2 G,2 | A,,2 E,2 F,2 | D,2 E,2 F,2 | z2 z2 z2 | %25
w: G D G|G B|A G F|G G G|A E F|D E F||
w: |||||||
 G,2 A,,2 A,,2 | D,2 A,,2 D,2 :| %27
w: G A A|D A D|
w: ||
V:3
 x6 | x6 | x6 | x6 | x6 | x6 | x6 | x6 | x6 | D2 E2 F2 | x6 | x6 :: x6 | x6 | x6 | x6 | x6 | x6 | %18
w: |||||||||(D E F)|||||||||
 x6 | x6 | x6 | x6 | x6 | x6 | G2 A2 B2 | x6 | x6 :| %27
w: ||||||(G A B)|||

